X:0
T:The Major/Mixolydian/Dorian (do/so/re) Pentatonic Scale
M:6/4
L:1/4
K:C
P:do -mi -ti
"_do"C "_re"D "_fa"F "_so"G "_la"A "_do"c |\
"_do"c "_la"A "_so"G "_fa"F "_re"D "_do"C||
K:GMix
P:so -ti -fa
"_so"G "_la"A "_do"c "_re"d "_mi"e "_so"g |\
"_so"g "_mi"e "_re"d "_do"c "_la"A "_so"G||
K:DDor
P:re -fa -do
"_re"D "_mi"E "_so"G "_la"A "_ti"B "_re"d |\
"_re"d "_ti"B "_la"A "_so"G "_mi"E "_re"D|]

In the Carnatic music theory of south India this is the secondary raga
"Arabhi" (associated with the morning and a mood of mystery).  But the
only complete tune in this mode I could trace on paper was African:

